src/status/scalable/indicator-notification-close-deselect.svg

<svg width="64" height="64" viewBox="0 0 64 64" xmlns="http://www.w3.org/2000/svg">
 <path d="m9.882812 1.882812c-2.121093 0-4.15625 0.84375-5.65625 2.34375-3.125 3.125-3.125 8.1875 0 11.3125l16.460938 16.460938-16.460938 16.460938c-3.125 3.125-3.125 8.1875 0 11.3125 3.125 3.121093 8.1875 3.121093 11.3125 0l16.460938-16.460938 16.460938 16.460938c3.125 3.121093 8.1875 3.121093 11.3125 0 3.121093-3.125 3.121093-8.1875 0-11.3125l-16.460938-16.460938 16.46875-16.460938c3.121094-3.125 3.121094-8.1875 0-11.3125-1.503906-1.503906-3.539062-2.34375-5.664062-2.34375-2.121094 0-4.15625 0.84375-5.65625 2.34375l-16.460938 16.460938-16.460938-16.460938c-1.5-1.5-3.535156-2.34375-5.65625-2.34375zm0 5c0.792969 0 1.554688 0.316407 2.117188 0.875l20 20 20-20c0.5625-0.558593 1.324219-0.875 2.117188-0.875 0.796874-0.003906 1.5625 0.3125 2.125 0.875 1.171874 1.171876 1.171874 3.070313 0 4.242188l-20 20 20 20c1.171874 1.171875 1.171874 3.070312 0 4.242188-1.171876 1.171874-3.070313 1.171874-4.242188 0l-20-20-20 20c-1.171875 1.171874-3.070312 1.171874-4.242188 0-1.171874-1.171876-1.171874-3.070313 0-4.242188l20-20-20-20c-1.171874-1.171875-1.171874-3.070312 0-4.242188 0.566407-0.5625 1.328126-0.878906 2.125-0.875z" fill="rgb(18.039216%, 20.392157%, 25.098041%)"/>
</svg>

<svg xmlns="http://www.w3.org/2000/svg" xmlns:xlink="http://www.w3.org/1999/xlink" width="64" height="64" viewBox="0 0 64 64">
<path fill-rule="nonzero" fill="rgb(18.039216%, 20.392157%, 25.098041%)" fill-opacity="1" d="M 9.882812 1.882812 C 7.761719 1.882812 5.726562 2.726562 4.226562 4.226562 C 1.101562 7.351562 1.101562 12.414062 4.226562 15.539062 L 20.6875 32 L 4.226562 48.460938 C 1.101562 51.585938 1.101562 56.648438 4.226562 59.773438 C 7.351562 62.894531 12.414062 62.894531 15.539062 59.773438 L 32 43.3125 L 48.460938 59.773438 C 51.585938 62.894531 56.648438 62.894531 59.773438 59.773438 C 62.894531 56.648438 62.894531 51.585938 59.773438 48.460938 L 43.3125 32 L 59.78125 15.539062 C 62.902344 12.414062 62.902344 7.351562 59.78125 4.226562 C 58.277344 2.722656 56.242188 1.882812 54.117188 1.882812 C 51.996094 1.882812 49.960938 2.726562 48.460938 4.226562 L 32 20.6875 L 15.539062 4.226562 C 14.039062 2.726562 12.003906 1.882812 9.882812 1.882812 Z M 9.882812 6.882812 C 10.675781 6.882812 11.4375 7.199219 12 7.757812 L 32 27.757812 L 52 7.757812 C 52.5625 7.199219 53.324219 6.882812 54.117188 6.882812 C 54.914062 6.878906 55.679688 7.195312 56.242188 7.757812 C 57.414062 8.929688 57.414062 10.828125 56.242188 12 L 36.242188 32 L 56.242188 52 C 57.414062 53.171875 57.414062 55.070312 56.242188 56.242188 C 55.070312 57.414062 53.171875 57.414062 52 56.242188 L 32 36.242188 L 12 56.242188 C 10.828125 57.414062 8.929688 57.414062 7.757812 56.242188 C 6.585938 55.070312 6.585938 53.171875 7.757812 52 L 27.757812 32 L 7.757812 12 C 6.585938 10.828125 6.585938 8.929688 7.757812 7.757812 C 8.324219 7.195312 9.085938 6.878906 9.882812 6.882812 Z M 9.882812 6.882812 "/>
</svg>
